src/assets/images/wallacoins-tutorial-2.svg

<?xml version="1.0" encoding="UTF-8"?>
<svg width="300px" height="200px" viewBox="0 0 300 200" version="1.1" xmlns="http://www.w3.org/2000/svg" xmlns:xlink="http://www.w3.org/1999/xlink">
    <!-- Generator: Sketch 51.2 (57519) - http://www.bohemiancoding.com/sketch -->
    <title>onboarding_2</title>
    <desc>Created with Sketch.</desc>
    <defs></defs>
    <g id="onboarding" stroke="none" stroke-width="1" fill="none" fill-rule="evenodd">
        <g id="onboarding_2" transform="translate(-570.000000, -163.000000)">
            <g id="Group-10" transform="translate(570.000000, 163.000000)">
                <g id="Group-9" transform="translate(76.000000, 22.000000)"></g>
                <rect id="Rectangle-6" fill-opacity="0" fill="#FFFFFF" fill-rule="nonzero" x="0" y="0" width="300" height="200"></rect>
                <circle id="Oval" fill="#C1F5E6" opacity="0.5" cx="151" cy="100" r="75"></circle>
                <g id="Group-4" transform="translate(209.215782, 96.051873) rotate(-5.000000) translate(-209.215782, -96.051873) translate(173.215782, 51.051873)" fill="#FFFFFF" fill-rule="nonzero" stroke-width="3">
                    <rect id="Rectangle-6" stroke="#13C1AC" x="1.5" y="1.5" width="69" height="87" rx="3"></rect>
                    <rect id="Rectangle-6" stroke="#C1F5E6" x="10.5" y="11.5" width="51" height="68" rx="3"></rect>
                </g>
                <g id="Group-4" transform="translate(147.559570, 106.583008) rotate(12.000000) translate(-147.559570, -106.583008) translate(111.559570, 61.583008)" fill="#FFFFFF" fill-rule="nonzero" stroke-width="3">
                    <rect id="Rectangle-6" stroke="#13C1AC" x="1.5" y="1.5" width="69" height="87" rx="3"></rect>
                    <rect id="Rectangle-6" stroke="#C1F5E6" x="10.5" y="11.5" width="51" height="68" rx="3"></rect>
                </g>
                <g id="Group-4" transform="translate(86.106445, 95.075195) rotate(-17.000000) translate(-86.106445, -95.075195) translate(50.106445, 50.075195)" fill="#FFFFFF" fill-rule="nonzero" stroke-width="3">
                    <rect id="Rectangle-6" stroke="#13C1AC" x="1.5" y="1.5" width="69" height="87" rx="3"></rect>
                    <rect id="Rectangle-6" stroke="#C1F5E6" x="10.5" y="11.5" width="51" height="68" rx="3"></rect>
                </g>
                <g id="Group-8" transform="translate(68.000000, 82.000000)" stroke-width="2">
                    <g id="Group-5" transform="translate(18.197192, 17.898029) rotate(-17.000000) translate(-18.197192, -17.898029) translate(0.697192, 12.898029)">
                        <rect id="Rectangle-Copy-21" stroke="#13C1AC" fill="#FFFFFF" x="1" y="1" width="33" height="8" rx="3"></rect>
                        <path d="M29,2 L29,7.99200439" id="Line" stroke="#C1F5E6" fill-rule="nonzero"></path>
                        <path d="M21,2 L21,7.99200439" id="Line" stroke="#C1F5E6" fill-rule="nonzero"></path>
                        <path d="M13,2 L13,7.99200439" id="Line" stroke="#C1F5E6" fill-rule="nonzero"></path>
                        <path d="M5,2 L5,7.99200439" id="Line" stroke="#C1F5E6" fill-rule="nonzero"></path>
                    </g>
                    <g id="Group-5" transform="translate(18.197192, 9.898029) rotate(-17.000000) translate(-18.197192, -9.898029) translate(0.697192, 4.898029)">
                        <rect id="Rectangle-Copy-21" stroke="#13C1AC" fill="#FFFFFF" x="1" y="1" width="33" height="8" rx="3"></rect>
                        <path d="M29,2 L29,7.99200439" id="Line" stroke="#C1F5E6" fill-rule="nonzero"></path>
                        <path d="M21,2 L21,7.99200439" id="Line" stroke="#C1F5E6" fill-rule="nonzero"></path>
                        <path d="M13,2 L13,7.99200439" id="Line" stroke="#C1F5E6" fill-rule="nonzero"></path>
                        <path d="M5,2 L5,7.99200439" id="Line" stroke="#C1F5E6" fill-rule="nonzero"></path>
                    </g>
                </g>
                <g id="Group-5" transform="translate(147.062685, 107.315590) rotate(11.000000) translate(-147.062685, -107.315590) translate(128.562685, 93.815590)" stroke-width="2">
                    <rect id="Rectangle-Copy-21" stroke="#13C1AC" fill="#FFFFFF" x="1" y="10" width="33" height="8" rx="3"></rect>
                    <path d="M29,11 L29,16.9920044" id="Line" stroke="#C1F5E6" fill-rule="nonzero"></path>
                    <path d="M21,11 L21,16.9920044" id="Line" stroke="#C1F5E6" fill-rule="nonzero"></path>
                    <path d="M13,11 L13,16.9920044" id="Line" stroke="#C1F5E6" fill-rule="nonzero"></path>
                    <path d="M5,11 L5,16.9920044" id="Line" stroke="#C1F5E6" fill-rule="nonzero"></path>
                    <rect id="Rectangle-Copy-21" stroke="#13C1AC" fill="#FFFFFF" x="3" y="1.9960022" width="33" height="8" rx="3"></rect>
                    <path d="M30.25,3 L30.25,8.99200439" id="Line" stroke="#C1F5E6" fill-rule="nonzero"></path>
                    <path d="M24.25,3 L24.25,8.99200439" id="Line" stroke="#C1F5E6" fill-rule="nonzero"></path>
                    <path d="M17.25,3 L17.25,8.99200439" id="Line" stroke="#C1F5E6" fill-rule="nonzero"></path>
                    <path d="M10.25,3 L10.25,8.99200439" id="Line" stroke="#C1F5E6" fill-rule="nonzero"></path>
                    <rect id="Rectangle-Copy-21" stroke="#13C1AC" fill="#FFFFFF" x="3" y="18" width="33" height="8" rx="3"></rect>
                    <path d="M31,19 L31,24.9920044" id="Line" stroke="#C1F5E6" fill-rule="nonzero"></path>
                    <path d="M23,19 L23,24.9920044" id="Line" stroke="#C1F5E6" fill-rule="nonzero"></path>
                    <path d="M15,19 L15,24.9920044" id="Line" stroke="#C1F5E6" fill-rule="nonzero"></path>
                    <path d="M7,19 L7,24.9920044" id="Line" stroke="#C1F5E6" fill-rule="nonzero"></path>
                </g>
                <g id="Group-5" transform="translate(209.166620, 96.167192) rotate(-5.000000) translate(-209.166620, -96.167192) translate(189.666620, 78.667192)" stroke-width="2">
                    <rect id="Rectangle-Copy-21" stroke="#13C1AC" fill="#FFFFFF" x="1" y="18" width="33" height="8" rx="3"></rect>
                    <path d="M29,19 L29,24.9920044" id="Line" stroke="#C1F5E6" fill-rule="nonzero"></path>
                    <path d="M21,19 L21,24.9920044" id="Line" stroke="#C1F5E6" fill-rule="nonzero"></path>
                    <path d="M13,19 L13,24.9920044" id="Line" stroke="#C1F5E6" fill-rule="nonzero"></path>
                    <path d="M5,19 L5,24.9920044" id="Line" stroke="#C1F5E6" fill-rule="nonzero"></path>
                    <rect id="Rectangle-Copy-21" stroke="#13C1AC" fill="#FFFFFF" x="4.29719294" y="10.0546543" width="33" height="8" rx="3"></rect>
                    <path d="M31.25,11 L31.25,16.9920044" id="Line" stroke="#C1F5E6" fill-rule="nonzero"></path>
                    <path d="M24.25,11 L24.25,16.9920044" id="Line" stroke="#C1F5E6" fill-rule="nonzero"></path>
                    <path d="M16.25,11 L16.25,16.9920044" id="Line" stroke="#C1F5E6" fill-rule="nonzero"></path>
                    <path d="M9.15,11 L9.15,16.9920044" id="Line" stroke="#C1F5E6" fill-rule="nonzero"></path>
                    <rect id="Rectangle-Copy-21" stroke="#13C1AC" fill="#FFFFFF" x="3.99824419" y="1.99794095" width="33" height="8" rx="3"></rect>
                    <path d="M33.25,3 L33.25,8.99200439" id="Line" stroke="#C1F5E6" fill-rule="nonzero"></path>
                    <path d="M27.25,3 L27.25,8.99200439" id="Line" stroke="#C1F5E6" fill-rule="nonzero"></path>
                    <path d="M20.25,3 L20.25,8.99200439" id="Line" stroke="#C1F5E6" fill-rule="nonzero"></path>
                    <path d="M13.15,3 L13.15,8.99200439" id="Line" stroke="#C1F5E6" fill-rule="nonzero"></path>
                    <path d="M7.25,3 L7.25,8.99200439" id="Line-Copy" stroke="#C1F5E6" fill-rule="nonzero"></path>
                    <rect id="Rectangle-Copy-21" stroke="#13C1AC" fill="#FFFFFF" x="3" y="26" width="33" height="8" rx="3"></rect>
                    <path d="M31,27 L31,32.9920044" id="Line" stroke="#C1F5E6" fill-rule="nonzero"></path>
                    <path d="M23,27 L23,32.9920044" id="Line" stroke="#C1F5E6" fill-rule="nonzero"></path>
                    <path d="M15,27 L15,32.9920044" id="Line" stroke="#C1F5E6" fill-rule="nonzero"></path>
                    <path d="M7,27 L7,32.9920044" id="Line" stroke="#C1F5E6" fill-rule="nonzero"></path>
                </g>
            </g>
        </g>
    </g>
</svg>

<svg width="300" height="200" viewBox="0 0 300 200" xmlns="http://www.w3.org/2000/svg"><g id="onboarding" fill="none" fill-rule="evenodd"><g id="onboarding_2" transform="translate(-570 -163)"><g id="Group-10" transform="translate(570 163)"><path id="Rectangle-6" fill-opacity="0" fill="#FFF" fill-rule="nonzero" d="M0 0h300v200H0z"/><circle id="Oval" fill="#C1F5E6" opacity=".5" cx="151" cy="100" r="75"/><g id="Group-4" transform="rotate(-5 707.248 -1913.12)" fill="#FFF" fill-rule="nonzero" stroke-width="3"><rect id="Rectangle-6" stroke="#13C1AC" x="1.5" y="1.5" width="69" height="87" rx="3"/><rect id="Rectangle-6" stroke="#C1F5E6" x="10.5" y="11.5" width="51" height="68" rx="3"/></g><g id="Group-4" transform="rotate(12 -201.182 606.5)" fill="#FFF" fill-rule="nonzero" stroke-width="3"><rect id="Rectangle-6" stroke="#13C1AC" x="1.5" y="1.5" width="69" height="87" rx="3"/><rect id="Rectangle-6" stroke="#C1F5E6" x="10.5" y="11.5" width="51" height="68" rx="3"/></g><g id="Group-4" transform="rotate(-17 228.584 -97.597)" fill="#FFF" fill-rule="nonzero" stroke-width="3"><rect id="Rectangle-6" stroke="#13C1AC" x="1.5" y="1.5" width="69" height="87" rx="3"/><rect id="Rectangle-6" stroke="#C1F5E6" x="10.5" y="11.5" width="51" height="68" rx="3"/></g><g id="Group-8" transform="translate(68 82)" stroke-width="2"><g id="Group-5" transform="rotate(-17 61 9.117)"><rect id="Rectangle-Copy-21" stroke="#13C1AC" fill="#FFF" x="1" y="1" width="33" height="8" rx="3"/><path d="M29 2v5.992M21 2v5.992M13 2v5.992M5 2v5.992" id="Line" stroke="#C1F5E6" fill-rule="nonzero"/></g><g id="Group-5" transform="rotate(-17 34.235 5.117)"><rect id="Rectangle-Copy-21" stroke="#13C1AC" fill="#FFF" x="1" y="1" width="33" height="8" rx="3"/><path d="M29 2v5.992M21 2v5.992M13 2v5.992M5 2v5.992" id="Line" stroke="#C1F5E6" fill-rule="nonzero"/></g></g><g id="Group-5" transform="rotate(11 -404.375 727.995)" stroke-width="2"><rect id="Rectangle-Copy-21" stroke="#13C1AC" fill="#FFF" x="1" y="10" width="33" height="8" rx="3"/><path d="M29 11v5.992M21 11v5.992M13 11v5.992M5 11v5.992" id="Line" stroke="#C1F5E6" fill-rule="nonzero"/><rect id="Rectangle-Copy-21" stroke="#13C1AC" fill="#FFF" x="3" y="1.996" width="33" height="8" rx="3"/><path d="M30.25 3v5.992M24.25 3v5.992M17.25 3v5.992M10.25 3v5.992" id="Line" stroke="#C1F5E6" fill-rule="nonzero"/><rect id="Rectangle-Copy-21" stroke="#13C1AC" fill="#FFF" x="3" y="18" width="33" height="8" rx="3"/><path d="M31 19v5.992M23 19v5.992M15 19v5.992M7 19v5.992" id="Line" stroke="#C1F5E6" fill-rule="nonzero"/></g><g id="Group-5" transform="rotate(-5 1015.22 -2115.206)" stroke-width="2"><rect id="Rectangle-Copy-21" stroke="#13C1AC" fill="#FFF" x="1" y="18" width="33" height="8" rx="3"/><path d="M29 19v5.992M21 19v5.992M13 19v5.992M5 19v5.992" id="Line" stroke="#C1F5E6" fill-rule="nonzero"/><rect id="Rectangle-Copy-21" stroke="#13C1AC" fill="#FFF" x="4.297" y="10.055" width="33" height="8" rx="3"/><path d="M31.25 11v5.992M24.25 11v5.992M16.25 11v5.992M9.15 11v5.992" id="Line" stroke="#C1F5E6" fill-rule="nonzero"/><rect id="Rectangle-Copy-21" stroke="#13C1AC" fill="#FFF" x="3.998" y="1.998" width="33" height="8" rx="3"/><path d="M33.25 3v5.992M27.25 3v5.992M20.25 3v5.992M13.15 3v5.992" id="Line" stroke="#C1F5E6" fill-rule="nonzero"/><path d="M7.25 3v5.992" id="Line-Copy" stroke="#C1F5E6" fill-rule="nonzero"/><rect id="Rectangle-Copy-21" stroke="#13C1AC" fill="#FFF" x="3" y="26" width="33" height="8" rx="3"/><path d="M31 27v5.992M23 27v5.992M15 27v5.992M7 27v5.992" id="Line" stroke="#C1F5E6" fill-rule="nonzero"/></g></g></g></g></svg>
